X: 10016
T: Dhow, The
R: hornpipe
M: 4/4
K: Gminor
zd>c|B>dB>A G3E|D>d^c>d e>d=c>B|A>cA>G ^F3 E|D>d^c>d e>d (3=cBA|
B>AB>A G>^FG>E|D>d^c>d e>d=c>B|A>dc>B A>D=E>F|G2 G>^F G:|
|:g^f>g|e>cG>c e>g^f>g|d>BG>B d2 c>B|A>D (3FGA d>cB>A|G>D (3GAB d>g^f>g|
e>cG>c e>gb>a|g>dB>d G>BA>G|A>D (3FGA d>cB>A|G2 G>^F G:|

